src/assets/Menu.svg

<svg fill="none" height="20" viewBox="0 0 20 20" width="20" xmlns="http://www.w3.org/2000/svg"><path clip-rule="evenodd" d="m6 10.5c0 .8284-.67157 1.5-1.5 1.5s-1.5-.6716-1.5-1.5c0-.82843.67157-1.5 1.5-1.5s1.5.67157 1.5 1.5zm5.8333 0c0 .8284-.6715 1.5-1.5 1.5-.82838 0-1.49996-.6716-1.49996-1.5 0-.82843.67158-1.5 1.49996-1.5.8285 0 1.5.67157 1.5 1.5zm4.3334 1.5c.8284 0 1.5-.6716 1.5-1.5 0-.82843-.6716-1.5-1.5-1.5-.8285 0-1.5.67157-1.5 1.5 0 .8284.6715 1.5 1.5 1.5z" fill="#666f7d" fill-rule="evenodd"/></svg>

<svg width="20" height="20" viewBox="0 0 20 20" fill="none" xmlns="http://www.w3.org/2000/svg">
<path fill-rule="evenodd" clip-rule="evenodd" d="M6 10.5C6 11.3284 5.32843 12 4.5 12C3.67157 12 3 11.3284 3 10.5C3 9.67157 3.67157 9 4.5 9C5.32843 9 6 9.67157 6 10.5ZM11.8333 10.5C11.8333 11.3284 11.1618 12 10.3333 12C9.50492 12 8.83334 11.3284 8.83334 10.5C8.83334 9.67157 9.50492 9 10.3333 9C11.1618 9 11.8333 9.67157 11.8333 10.5ZM16.1667 12C16.9951 12 17.6667 11.3284 17.6667 10.5C17.6667 9.67157 16.9951 9 16.1667 9C15.3382 9 14.6667 9.67157 14.6667 10.5C14.6667 11.3284 15.3382 12 16.1667 12Z" fill="#666F7D"/>
</svg>
